Newaita-dark/apps/48/peek.svg

<svg height="48pt" viewBox="0 0 48 48" width="48pt" xmlns="http://www.w3.org/2000/svg" xmlns:xlink="http://www.w3.org/1999/xlink"><linearGradient id="a"><stop offset="0" stop-opacity=".313726"/><stop offset=".222222" stop-opacity=".27451"/><stop offset="1" stop-opacity="0"/></linearGradient><radialGradient id="b" cx="450.908936" cy="189.579361" gradientTransform="matrix(.00000036 -.102549 -.288309 -.00000013 78.984696 88.973262)" gradientUnits="userSpaceOnUse" r="21.166656" xlink:href="#a"/><radialGradient id="c" cx="450.908936" cy="189.579361" gradientTransform="matrix(-.00000036 .102549 .288309 .00000013 -31.685907 -4.375346)" gradientUnits="userSpaceOnUse" r="21.166656" xlink:href="#a"/><radialGradient id="d" cx="450.908936" cy="189.579361" gradientTransform="matrix(-.00000036 -.102549 .288309 -.00000013 -31.685907 88.973262)" gradientUnits="userSpaceOnUse" r="21.166656" xlink:href="#a"/><radialGradient id="e" cx="450.908936" cy="189.579361" gradientTransform="matrix(.00000036 .102549 -.288309 .00000013 78.984692 -4.375346)" gradientUnits="userSpaceOnUse" r="21.166656" xlink:href="#a"/><linearGradient id="f" gradientTransform="matrix(.0273881 0 0 .082039 16.656575 23.142854)" gradientUnits="userSpaceOnUse" x1="255.323059" x2="255.323044" y1="233.5" y2="254.666656"><stop offset="0" stop-opacity=".27451"/><stop offset="1" stop-opacity="0"/></linearGradient><linearGradient id="g" gradientUnits="userSpaceOnUse" x1="23.814786" x2="23.814786" y1="42.0509015" y2="4.34415649995"><stop offset="0" stop-color="#ff7043"/><stop offset="1" stop-color="#ff8a65"/></linearGradient><linearGradient id="h" gradientUnits="userSpaceOnUse" x1="23.814786" x2="23.814786" y1="34.11263899995" y2="12.282419"><stop offset="0" stop-color="#bdbdbd"/><stop offset="1" stop-color="#e0e0e0"/></linearGradient><path d="m25.003906 42.300781h5.425782v-1.738281h-5.425782zm0 0" fill="url(#b)"/><path d="m22.292969 42.300781h-5.425781v1.734375h5.425781zm0 0" fill="url(#c)"/><path d="m22.292969 42.300781h-5.425781v-1.738281h5.425781zm0 0" fill="url(#d)"/><path d="m25.003906 42.300781h5.425782v1.734375h-5.425782zm0 0" fill="url(#e)"/><path d="m22.292969 41.863281h2.710937v2.171875h-2.710937zm0 0" fill="url(#f)"/><path d="m23.816406 4.34375c10.410156 0 18.851563 8.441406 18.851563 18.855469 0 10.410156-8.441407 18.851562-18.851563 18.851562-10.414062 0-18.855468-8.441406-18.855468-18.851562 0-10.414063 8.441406-18.855469 18.855468-18.855469zm0 0" fill="url(#g)"/><path d="m23.816406 4.34375c-10.445312 0-18.855468 8.410156-18.855468 18.855469 0 .125.003906.253906.003906.378906.203125-10.265625 8.53125-18.472656 18.851562-18.472656 10.316406 0 18.644532 8.207031 18.847656 18.472656.003907-.125.003907-.253906.003907-.378906 0-10.445313-8.410157-18.855469-18.851563-18.855469zm0 0" fill="#fff" fill-opacity=".470588"/><path d="m23.816406 42.050781c-10.445312 0-18.855468-8.410156-18.855468-18.851562 0-.128907.003906-.253907.003906-.382813.203125 10.269532 8.53125 18.472656 18.851562 18.472656 10.316406 0 18.644532-8.203124 18.847656-18.472656.003907.128906.003907.253906.003907.382813 0 10.441406-8.410157 18.851562-18.851563 18.851562zm0 0" fill-opacity=".235294"/><path d="m23.816406 4.203125c-10.523437 0-18.996094 8.472656-18.996094 18.996094 0 10.519531 8.472657 18.992187 18.996094 18.992187 10.519532 0 18.992188-8.472656 18.992188-18.992187 0-10.523438-8.472656-18.996094-18.992188-18.996094zm0 .28125c10.367188 0 18.710938 8.34375 18.710938 18.714844 0 10.367187-8.34375 18.710937-18.710938 18.710937-10.371094 0-18.714844-8.34375-18.714844-18.710937 0-10.371094 8.34375-18.714844 18.714844-18.714844zm0 0" fill="#212121"/><path d="m19.800781 12.28125c-.4375 0-.820312.289062-.949219.707031l-5.953124 19.847657c-.191407.636718.285156 1.277343.949218 1.277343h3.96875c.441406 0 .824219-.289062.953125-.707031l2.464844-8.226562h7.5c1.445313 0 2.640625-.914063 3.597656-2.058594.957031-1.148438 1.710938-2.605469 2.183594-4.089844.472656-1.480469.679687-2.976562.339844-4.296875-.167969-.660156-.5-1.292969-1.050781-1.753906-.550782-.457031-1.292969-.699219-2.09375-.699219zm4.707031 1.984375h4.851563c.4375 0 .660156.101563.824219.242187.167968.136719.308594.355469.402344.71875.1875.726563.085937 1.957032-.3125 3.203126-.394532 1.25-1.066407 2.519531-1.816407 3.417968-.746093.902344-1.535156 1.351563-2.074219 1.351563h-4.550781zm0 0" fill="url(#h)"/><path d="m19.800781 12.28125c-.4375 0-.820312.289062-.949219.707031l-5.953124 19.847657c-.054688.183593-.054688.367187-.007813.535156 0-.011719.003906-.027344.007813-.039063l5.953124-19.84375c.128907-.421875.511719-.707031.949219-.707031h11.910157c.800781 0 1.542968.238281 2.09375.695312.550781.460938.882812 1.09375 1.050781 1.753907.097656.371093.148437.753906.164062 1.148437.019531-.570312-.027343-1.121094-.164062-1.644531-.167969-.660156-.5-1.292969-1.050781-1.753906-.550782-.457031-1.292969-.699219-2.09375-.699219zm10.871094 4.050781c-.03125.625-.160156 1.359375-.398437 2.097657-.394532 1.25-1.066407 2.519531-1.816407 3.417968-.746093.902344-1.535156 1.351563-2.074219 1.351563h-4.402343l-.148438.496093h4.550781c.539063 0 1.328126-.449218 2.074219-1.347656.75-.902344 1.421875-2.171875 1.816407-3.417968.304687-.949219.433593-1.882813.398437-2.597657zm0 0" fill="#fff" fill-opacity=".784314"/><path d="m24.507812 13.769531-2.675781 8.933594h.148438l2.527343-8.4375h4.851563c.4375 0 .660156.101563.824219.242187.167968.136719.308594.355469.402344.71875.046874.175782.074218.382813.085937.609376.019531-.429688-.011719-.808594-.085937-1.105469-.09375-.363281-.234376-.582031-.402344-.71875-.164063-.140625-.386719-.242188-.824219-.242188zm10.511719 2.113281c-.03125.863282-.21875 1.761719-.503906 2.65625-.472656 1.480469-1.226563 2.9375-2.183594 4.085938-.957031 1.144531-2.152343 2.0625-3.597656 2.0625h-7.5l-2.464844 8.222656c-.128906.417969-.511719.707032-.953125.707032h-3.96875c-.472656 0-.851562-.324219-.957031-.742188-.164063.621094.308594 1.238281.957031 1.238281h3.96875c.441406 0 .824219-.289062.953125-.707031l2.464844-8.226562h7.5c1.445313 0 2.640625-.914063 3.597656-2.058594.957031-1.148438 1.710938-2.605469 2.183594-4.089844.339844-1.0625.542969-2.136719.503906-3.148438zm0 0" fill-opacity=".235294"/><path d="m19.800781 12.140625c-.496093 0-.9375.332031-1.082031.808594l-5.953125 19.847656c-.21875.722656.328125 1.457031 1.082031 1.457031h3.96875c.5 0 .941406-.328125 1.085938-.808594l2.4375-8.125h7.394531c1.503906 0 2.738281-.949218 3.707031-2.109374.96875-1.164063 1.730469-2.636719 2.207032-4.136719.476562-1.496094.695312-3.019531.34375-4.375-.175782-.683594-.519532-1.34375-1.097657-1.824219-.582031-.484375-1.355469-.734375-2.183593-.734375zm0 .28125h11.910157c.773437 0 1.480468.234375 2.003906.667969.523437.433594.839844 1.039062 1.003906 1.679687.332031 1.28125.128906 2.753907-.335938 4.21875-.46875 1.46875-1.214843 2.910157-2.160156 4.039063-.941406 1.132812-2.101562 2.011718-3.488281 2.011718h-7.5c-.0625 0-.117187.042969-.132813.101563l-2.46875 8.222656c-.109374.363281-.4375.609375-.816406.609375h-3.96875c-.574218 0-.980468-.546875-.8125-1.097656l5.953125-19.84375c.105469-.363281.4375-.609375.8125-.609375zm4.707031 1.703125c-.058593 0-.113281.042969-.132812.101562l-2.679688 8.929688c-.011718.042969-.003906.089844.023438.125.023438.035156.066406.058594.113281.058594h4.550781c.617188 0 1.417969-.480469 2.183594-1.398438.765625-.917968 1.441406-2.203125 1.84375-3.46875s.511719-2.503906.3125-3.28125c-.097656-.382812-.253906-.632812-.449218-.792968-.1875-.15625-.453126-.273438-.914063-.273438zm.105469.28125h4.746094c.417969 0 .589844.085938.734375.207031.140625.117188.265625.304688.355469.648438.175781.679687.082031 1.898437-.308594 3.128906-.390625 1.226563-1.054687 2.488281-1.789063 3.367187-.734374.882813-1.507812 1.300782-1.96875 1.300782h-4.363281zm0 0" fill="#212121"/><path d="m24.507812 14.265625-2.675781 8.933594h.148438l2.527343-8.4375h4.851563c.4375 0 .660156.101562.824219.242187.167968.136719.308594.355469.402344.71875.046874.175782.074218.382813.085937.609375.019531-.429687-.011719-.808593-.085937-1.101562-.09375-.363281-.234376-.585938-.402344-.722657-.164063-.140624-.386719-.242187-.824219-.242187zm10.511719 2.113281c-.03125.863282-.21875 1.761719-.503906 2.65625-.472656 1.480469-1.226563 2.9375-2.183594 4.085938-.957031 1.148437-2.152343 2.0625-3.597656 2.0625h-7.5l-2.464844 8.222656c-.128906.417969-.511719.707031-.953125.707031h-3.96875c-.472656 0-.851562-.324219-.957031-.742187-.164063.621094.308594 1.238281.957031 1.238281h3.96875c.441406 0 .824219-.289063.953125-.707031l2.464844-8.222656h7.5c1.445313 0 2.640625-.917969 3.597656-2.0625.957031-1.148438 1.710938-2.605469 2.183594-4.085938.339844-1.066406.542969-2.140625.503906-3.152344zm0 0" fill-opacity=".235294"/></svg>

<?xml version="1.0" encoding="UTF-8"?>
<svg xmlns="http://www.w3.org/2000/svg" xmlns:xlink="http://www.w3.org/1999/xlink" width="48pt" height="48pt" viewBox="0 0 48 48" version="1.1">
<defs>
<radialGradient id="radial0" gradientUnits="userSpaceOnUse" cx="450.908936" cy="189.579361" fx="450.908936" fy="189.579361" r="21.166656" gradientTransform="matrix(0.000000357049,-0.102549,-0.288309,-0.000000133269,78.984696,88.973262)">
<stop offset="0" style="stop-color:rgb(0%,0%,0%);stop-opacity:0.313726;"/>
<stop offset="0.222222" style="stop-color:rgb(0%,0%,0%);stop-opacity:0.27451;"/>
<stop offset="1" style="stop-color:rgb(0%,0%,0%);stop-opacity:0;"/>
</radialGradient>
<radialGradient id="radial1" gradientUnits="userSpaceOnUse" cx="450.908936" cy="189.579361" fx="450.908936" fy="189.579361" r="21.166656" gradientTransform="matrix(-0.000000357049,0.102549,0.288309,0.000000133269,-31.685907,-4.375346)">
<stop offset="0" style="stop-color:rgb(0%,0%,0%);stop-opacity:0.313726;"/>
<stop offset="0.222222" style="stop-color:rgb(0%,0%,0%);stop-opacity:0.27451;"/>
<stop offset="1" style="stop-color:rgb(0%,0%,0%);stop-opacity:0;"/>
</radialGradient>
<radialGradient id="radial2" gradientUnits="userSpaceOnUse" cx="450.908936" cy="189.579361" fx="450.908936" fy="189.579361" r="21.166656" gradientTransform="matrix(-0.000000357049,-0.102549,0.288309,-0.000000133269,-31.685907,88.973262)">
<stop offset="0" style="stop-color:rgb(0%,0%,0%);stop-opacity:0.313726;"/>
<stop offset="0.222222" style="stop-color:rgb(0%,0%,0%);stop-opacity:0.27451;"/>
<stop offset="1" style="stop-color:rgb(0%,0%,0%);stop-opacity:0;"/>
</radialGradient>
<radialGradient id="radial3" gradientUnits="userSpaceOnUse" cx="450.908936" cy="189.579361" fx="450.908936" fy="189.579361" r="21.166656" gradientTransform="matrix(0.000000357049,0.102549,-0.288309,0.000000133269,78.984692,-4.375346)">
<stop offset="0" style="stop-color:rgb(0%,0%,0%);stop-opacity:0.313726;"/>
<stop offset="0.222222" style="stop-color:rgb(0%,0%,0%);stop-opacity:0.27451;"/>
<stop offset="1" style="stop-color:rgb(0%,0%,0%);stop-opacity:0;"/>
</radialGradient>
<linearGradient id="linear0" gradientUnits="userSpaceOnUse" x1="255.323059" y1="233.5" x2="255.323044" y2="254.666656" gradientTransform="matrix(0.0273881,0,0,0.082039,16.656575,23.142854)">
<stop offset="0" style="stop-color:rgb(0%,0%,0%);stop-opacity:0.27451;"/>
<stop offset="1" style="stop-color:rgb(0%,0%,0%);stop-opacity:0;"/>
</linearGradient>
<linearGradient id="linear1" gradientUnits="userSpaceOnUse" x1="254" y1="233.5" x2="254" y2="-168.666672" gradientTransform="matrix(0.093759,0,0,0.093759,0,20.158175)">
<stop offset="0" style="stop-color:rgb(100%,43.921569%,26.274511%);stop-opacity:1;"/>
<stop offset="1" style="stop-color:rgb(100%,54.11765%,39.607844%);stop-opacity:1;"/>
</linearGradient>
<linearGradient id="linear2" gradientUnits="userSpaceOnUse" x1="254" y1="148.833328" x2="254" y2="-84" gradientTransform="matrix(0.093759,0,0,0.093759,0,20.158175)">
<stop offset="0" style="stop-color:rgb(74.117649%,74.117649%,74.117649%);stop-opacity:1;"/>
<stop offset="1" style="stop-color:rgb(87.843138%,87.843138%,87.843138%);stop-opacity:1;"/>
</linearGradient>
</defs>
<g id="surface1">
<path style=" stroke:none;fill-rule:nonzero;fill:url(#radial0);" d="M 25.003906 42.300781 L 30.429688 42.300781 L 30.429688 40.5625 L 25.003906 40.5625 Z M 25.003906 42.300781 "/>
<path style=" stroke:none;fill-rule:nonzero;fill:url(#radial1);" d="M 22.292969 42.300781 L 16.867188 42.300781 L 16.867188 44.035156 L 22.292969 44.035156 Z M 22.292969 42.300781 "/>
<path style=" stroke:none;fill-rule:nonzero;fill:url(#radial2);" d="M 22.292969 42.300781 L 16.867188 42.300781 L 16.867188 40.5625 L 22.292969 40.5625 Z M 22.292969 42.300781 "/>
<path style=" stroke:none;fill-rule:nonzero;fill:url(#radial3);" d="M 25.003906 42.300781 L 30.429688 42.300781 L 30.429688 44.035156 L 25.003906 44.035156 Z M 25.003906 42.300781 "/>
<path style=" stroke:none;fill-rule:nonzero;fill:url(#linear0);" d="M 22.292969 41.863281 L 25.003906 41.863281 L 25.003906 44.035156 L 22.292969 44.035156 Z M 22.292969 41.863281 "/>
<path style=" stroke:none;fill-rule:nonzero;fill:url(#linear1);" d="M 23.816406 4.34375 C 34.226562 4.34375 42.667969 12.785156 42.667969 23.199219 C 42.667969 33.609375 34.226562 42.050781 23.816406 42.050781 C 13.402344 42.050781 4.960938 33.609375 4.960938 23.199219 C 4.960938 12.785156 13.402344 4.34375 23.816406 4.34375 Z M 23.816406 4.34375 "/>
<path style=" stroke:none;fill-rule:nonzero;fill:rgb(100%,100%,100%);fill-opacity:0.470588;" d="M 23.816406 4.34375 C 13.371094 4.34375 4.960938 12.753906 4.960938 23.199219 C 4.960938 23.324219 4.964844 23.453125 4.964844 23.578125 C 5.167969 13.3125 13.496094 5.105469 23.816406 5.105469 C 34.132812 5.105469 42.460938 13.3125 42.664062 23.578125 C 42.667969 23.453125 42.667969 23.324219 42.667969 23.199219 C 42.667969 12.753906 34.257812 4.34375 23.816406 4.34375 Z M 23.816406 4.34375 "/>
<path style=" stroke:none;fill-rule:nonzero;fill:rgb(0%,0%,0%);fill-opacity:0.235294;" d="M 23.816406 42.050781 C 13.371094 42.050781 4.960938 33.640625 4.960938 23.199219 C 4.960938 23.070312 4.964844 22.945312 4.964844 22.816406 C 5.167969 33.085938 13.496094 41.289062 23.816406 41.289062 C 34.132812 41.289062 42.460938 33.085938 42.664062 22.816406 C 42.667969 22.945312 42.667969 23.070312 42.667969 23.199219 C 42.667969 33.640625 34.257812 42.050781 23.816406 42.050781 Z M 23.816406 42.050781 "/>
<path style=" stroke:none;fill-rule:nonzero;fill:rgb(12.941177%,12.941177%,12.941177%);fill-opacity:1;" d="M 23.816406 4.203125 C 13.292969 4.203125 4.820312 12.675781 4.820312 23.199219 C 4.820312 33.71875 13.292969 42.191406 23.816406 42.191406 C 34.335938 42.191406 42.808594 33.71875 42.808594 23.199219 C 42.808594 12.675781 34.335938 4.203125 23.816406 4.203125 Z M 23.816406 4.484375 C 34.183594 4.484375 42.527344 12.828125 42.527344 23.199219 C 42.527344 33.566406 34.183594 41.910156 23.816406 41.910156 C 13.445312 41.910156 5.101562 33.566406 5.101562 23.199219 C 5.101562 12.828125 13.445312 4.484375 23.816406 4.484375 Z M 23.816406 4.484375 "/>
<path style=" stroke:none;fill-rule:nonzero;fill:url(#linear2);" d="M 19.800781 12.28125 C 19.363281 12.28125 18.980469 12.570312 18.851562 12.988281 L 12.898438 32.835938 C 12.707031 33.472656 13.183594 34.113281 13.847656 34.113281 L 17.816406 34.113281 C 18.257812 34.113281 18.640625 33.824219 18.769531 33.40625 L 21.234375 25.179688 L 28.734375 25.179688 C 30.179688 25.179688 31.375 24.265625 32.332031 23.121094 C 33.289062 21.972656 34.042969 20.515625 34.515625 19.03125 C 34.988281 17.550781 35.195312 16.054688 34.855469 14.734375 C 34.6875 14.074219 34.355469 13.441406 33.804688 12.980469 C 33.253906 12.523438 32.511719 12.28125 31.710938 12.28125 Z M 24.507812 14.265625 L 29.359375 14.265625 C 29.796875 14.265625 30.019531 14.367188 30.183594 14.507812 C 30.351562 14.644531 30.492188 14.863281 30.585938 15.226562 C 30.773438 15.953125 30.671875 17.183594 30.273438 18.429688 C 29.878906 19.679688 29.207031 20.949219 28.457031 21.847656 C 27.710938 22.75 26.921875 23.199219 26.382812 23.199219 L 21.832031 23.199219 Z M 24.507812 14.265625 "/>
<path style=" stroke:none;fill-rule:nonzero;fill:rgb(100%,100%,100%);fill-opacity:0.784314;" d="M 19.800781 12.28125 C 19.363281 12.28125 18.980469 12.570312 18.851562 12.988281 L 12.898438 32.835938 C 12.84375 33.019531 12.84375 33.203125 12.890625 33.371094 C 12.890625 33.359375 12.894531 33.34375 12.898438 33.332031 L 18.851562 13.488281 C 18.980469 13.066406 19.363281 12.78125 19.800781 12.78125 L 31.710938 12.78125 C 32.511719 12.78125 33.253906 13.019531 33.804688 13.476562 C 34.355469 13.9375 34.6875 14.570312 34.855469 15.230469 C 34.953125 15.601562 35.003906 15.984375 35.019531 16.378906 C 35.039062 15.808594 34.992188 15.257812 34.855469 14.734375 C 34.6875 14.074219 34.355469 13.441406 33.804688 12.980469 C 33.253906 12.523438 32.511719 12.28125 31.710938 12.28125 Z M 30.671875 16.332031 C 30.640625 16.957031 30.511719 17.691406 30.273438 18.429688 C 29.878906 19.679688 29.207031 20.949219 28.457031 21.847656 C 27.710938 22.75 26.921875 23.199219 26.382812 23.199219 L 21.980469 23.199219 L 21.832031 23.695312 L 26.382812 23.695312 C 26.921875 23.695312 27.710938 23.246094 28.457031 22.347656 C 29.207031 21.445312 29.878906 20.175781 30.273438 18.929688 C 30.578125 17.980469 30.707031 17.046875 30.671875 16.332031 Z M 30.671875 16.332031 "/>
<path style=" stroke:none;fill-rule:nonzero;fill:rgb(0%,0%,0%);fill-opacity:0.235294;" d="M 24.507812 13.769531 L 21.832031 22.703125 L 21.980469 22.703125 L 24.507812 14.265625 L 29.359375 14.265625 C 29.796875 14.265625 30.019531 14.367188 30.183594 14.507812 C 30.351562 14.644531 30.492188 14.863281 30.585938 15.226562 C 30.632812 15.402344 30.660156 15.609375 30.671875 15.835938 C 30.691406 15.40625 30.660156 15.027344 30.585938 14.730469 C 30.492188 14.367188 30.351562 14.148438 30.183594 14.011719 C 30.019531 13.871094 29.796875 13.769531 29.359375 13.769531 Z M 35.019531 15.882812 C 34.988281 16.746094 34.800781 17.644531 34.515625 18.539062 C 34.042969 20.019531 33.289062 21.476562 32.332031 22.625 C 31.375 23.769531 30.179688 24.6875 28.734375 24.6875 L 21.234375 24.6875 L 18.769531 32.910156 C 18.640625 33.328125 18.257812 33.617188 17.816406 33.617188 L 13.847656 33.617188 C 13.375 33.617188 12.996094 33.292969 12.890625 32.875 C 12.726562 33.496094 13.199219 34.113281 13.847656 34.113281 L 17.816406 34.113281 C 18.257812 34.113281 18.640625 33.824219 18.769531 33.40625 L 21.234375 25.179688 L 28.734375 25.179688 C 30.179688 25.179688 31.375 24.265625 32.332031 23.121094 C 33.289062 21.972656 34.042969 20.515625 34.515625 19.03125 C 34.855469 17.96875 35.058594 16.894531 35.019531 15.882812 Z M 35.019531 15.882812 "/>
<path style=" stroke:none;fill-rule:nonzero;fill:rgb(12.941177%,12.941177%,12.941177%);fill-opacity:1;" d="M 19.800781 12.140625 C 19.304688 12.140625 18.863281 12.472656 18.71875 12.949219 L 12.765625 32.796875 C 12.546875 33.519531 13.09375 34.253906 13.847656 34.253906 L 17.816406 34.253906 C 18.316406 34.253906 18.757812 33.925781 18.902344 33.445312 L 21.339844 25.320312 L 28.734375 25.320312 C 30.238281 25.320312 31.472656 24.371094 32.441406 23.210938 C 33.410156 22.046875 34.171875 20.574219 34.648438 19.074219 C 35.125 17.578125 35.34375 16.054688 34.992188 14.699219 C 34.816406 14.015625 34.472656 13.355469 33.894531 12.875 C 33.3125 12.390625 32.539062 12.140625 31.710938 12.140625 Z M 19.800781 12.421875 L 31.710938 12.421875 C 32.484375 12.421875 33.191406 12.65625 33.714844 13.089844 C 34.238281 13.523438 34.554688 14.128906 34.71875 14.769531 C 35.050781 16.050781 34.847656 17.523438 34.382812 18.988281 C 33.914062 20.457031 33.167969 21.898438 32.222656 23.027344 C 31.28125 24.160156 30.121094 25.039062 28.734375 25.039062 L 21.234375 25.039062 C 21.171875 25.039062 21.117188 25.082031 21.101562 25.140625 L 18.632812 33.363281 C 18.523438 33.726562 18.195312 33.972656 17.816406 33.972656 L 13.847656 33.972656 C 13.273438 33.972656 12.867188 33.425781 13.035156 32.875 L 18.988281 13.03125 C 19.09375 12.667969 19.425781 12.421875 19.800781 12.421875 Z M 24.507812 14.125 C 24.449219 14.125 24.394531 14.167969 24.375 14.226562 L 21.695312 23.15625 C 21.683594 23.199219 21.691406 23.246094 21.71875 23.28125 C 21.742188 23.316406 21.785156 23.339844 21.832031 23.339844 L 26.382812 23.339844 C 27 23.339844 27.800781 22.859375 28.566406 21.941406 C 29.332031 21.023438 30.007812 19.738281 30.410156 18.472656 C 30.8125 17.207031 30.921875 15.96875 30.722656 15.191406 C 30.625 14.808594 30.46875 14.558594 30.273438 14.398438 C 30.085938 14.242188 29.820312 14.125 29.359375 14.125 Z M 24.613281 14.40625 L 29.359375 14.40625 C 29.777344 14.40625 29.949219 14.492188 30.09375 14.613281 C 30.234375 14.730469 30.359375 14.917969 30.449219 15.261719 C 30.625 15.941406 30.53125 17.160156 30.140625 18.390625 C 29.75 19.617188 29.085938 20.878906 28.351562 21.757812 C 27.617188 22.640625 26.84375 23.058594 26.382812 23.058594 L 22.019531 23.058594 Z M 24.613281 14.40625 "/>
<path style=" stroke:none;fill-rule:nonzero;fill:rgb(0%,0%,0%);fill-opacity:0.235294;" d="M 24.507812 14.265625 L 21.832031 23.199219 L 21.980469 23.199219 L 24.507812 14.761719 L 29.359375 14.761719 C 29.796875 14.761719 30.019531 14.863281 30.183594 15.003906 C 30.351562 15.140625 30.492188 15.359375 30.585938 15.722656 C 30.632812 15.898438 30.660156 16.105469 30.671875 16.332031 C 30.691406 15.902344 30.660156 15.523438 30.585938 15.230469 C 30.492188 14.867188 30.351562 14.644531 30.183594 14.507812 C 30.019531 14.367188 29.796875 14.265625 29.359375 14.265625 Z M 35.019531 16.378906 C 34.988281 17.242188 34.800781 18.140625 34.515625 19.035156 C 34.042969 20.515625 33.289062 21.972656 32.332031 23.121094 C 31.375 24.269531 30.179688 25.183594 28.734375 25.183594 L 21.234375 25.183594 L 18.769531 33.40625 C 18.640625 33.824219 18.257812 34.113281 17.816406 34.113281 L 13.847656 34.113281 C 13.375 34.113281 12.996094 33.789062 12.890625 33.371094 C 12.726562 33.992188 13.199219 34.609375 13.847656 34.609375 L 17.816406 34.609375 C 18.257812 34.609375 18.640625 34.320312 18.769531 33.902344 L 21.234375 25.679688 L 28.734375 25.679688 C 30.179688 25.679688 31.375 24.761719 32.332031 23.617188 C 33.289062 22.46875 34.042969 21.011719 34.515625 19.53125 C 34.855469 18.464844 35.058594 17.390625 35.019531 16.378906 Z M 35.019531 16.378906 "/>
</g>
</svg>
